!!!!SEGMENT: pl-wtm--r-1227--017_lodwigowski-edward-stefan--nieszczescie-losem-mem-wlada.krn
!!!cenid: 18xx:1957
!!!COM: Łodwigowski, Edward Stefan
!!!COM-rismID: pe30111147
!!!CDT: 1815/08/14-1895/11/12
!!!CNT: Polish
!!!OTL: Nieszczęście losem mem włada
!!!PDT:
!!!AGN:
!!!SMS-siglum: PL-Wtm
!!!SMS-shelfmark: R 1227
!!!SMS-shelfwork: 017 W
!!!SMS-variant:
!!!SMS-altvar:
!!!NIFC-rismSourceID: 1001084121
!!!NIFC-rismChildID: 1001084121
!!!NIFC-islandoraID:
!!!URL-pdf-islandora:
!!!URL-scan:
!!!ONB-nifc: UWAGA: No. 89
!!!OMD: No 89. Allegretto
!!!AIN: 1 forte
!!!key:
**kern	**fing	**kern	**fing	**dynam
*part1	*	*part1	*	*part1
*staff2	*	*staff1	*	*
*Iforte	*	*Iforte	*	*
*I"Fortepian	*	*I"Fortepian	*	*
*clefF4	*	*clefG2	*	*
*k[f#c#g#]	*	*k[f#c#g#]	*	*
*A:	*	*A:	*	*
*M6/8	*	*M6/8	*	*
*all\right	*	*all\right	*	*
!	!	!LO:TX:a:i:t=Nieszczęście losem mem włada. P.L.P.	!	!
8r	.	(8e/	1	p
=1	=1	=1	=1	=1
*^	*	*	*	*
*	*	*^	*	*	*
(<8C#/L	4AA\	3	5	4cc#\)	4	.
8E/	.	.	.	.	.	.
8A/J)	8rGG	.	.	(8cc#\	.	.
!	!LO:N:vis=4.	!	!	!	!	!
(<8D/L	4AA\	.	.	8b\L	.	.
8E/	.	.	.	8a#X\	.	.
8G#/J)	8rGG	.	.	8b\J)	.	.
*	*	*v	*v	*	*	*
=2	=2	=2	=2	=2	=2
(<8C#/L	4AA\	.	(4.a/	.	.
8E/	.	.	.	.	.
8A/J)	8rGG	.	.	.	.
(<8C#/L	4AA\	.	4e/)	.	.
8E/	.	.	.	.	.
8A/J)	8rGG	.	(16a/LL	2	.
.	.	.	16cc#/JJ)	4	.
=3	=3	=3	=3	=3	=3
(<8C#/L	4AA\	.	4ee\	5	<
8E/	.	.	.	.	.
8A/J)	8rGG	.	(8ee\	3	.
*	*	*below	*	*	*
4.D/	(>8D\L	5	8ff#\L	.	.
.	8F#\	.	8ee#X\	.	[
.	8B\J)	.	8ff#\J	.	>
=4	=4	=4	=4	=4	=4
4.E/	(>8E\L	4	4.b\)	.	.
.	8G#\	.	.	.	.
.	8B\J)	.	.	.	.
(<8GG#/L	4.GG#\	5	8r	.	]
8BB/	.	.	8r	.	.
8E/J)	.	.	(<8e/	1	.
=5	=5	=5	=5	=5	=5
(<8AA/L	4AA\	5	4cc#\)	4	.
8E/	.	.	.	.	.
!	!	!	!	!	!LO:HP:t=cres
8A/J)	8rGG	.	(8cc#\	3	<
8BB/L	4.BB\	.	8dd\L	4	.
(<8E/	.	.	8cc#\	3	.
8G#/J)	.	.	8dd\J)	1	.
!!LO:LB:g=original
=6	=6	=6	=6	=6	=6
4.C#/	(>8C#\L	4	(4.ee\	.	.
.	8E\	.	.	.	.
.	8A\J)	.	.	.	.
4.D/	(>8D\L	5	4ff#\	.	.
.	8F#\	.	.	.	.
.	8B\J)	.	16dd\LL	.	.
.	.	.	16b\JJ	.	.
=7	=7	=7	=7	=7	=7
4.E/	(>8E\L	.	4a/)	.	.
.	8A\	.	.	.	.
.	8c#\J)	.	(8a/	.	.
.	.	.	(8qcc#/	.	.
4.E/	(>8E\L	.	8b/L)	.	.
.	8G#\	.	8a#X/	.	.
.	8d\J)	.	8b/J	.	.
*v	*v	*	*	*	*
=	=	=	=	=
*	*^	*	*	*
(8c#L 8A\	2	4	[4.a/	.	.
8e\	.	.	.	.	.
8c#\J	.	.	.	.	.
8A|\)	.	.	8a/])	.	.
8r	.	.	8r	.	.
*	*v	*v	*	*	*
=8||	=8||	=8||	=8||	=8||
8r	.	(8ff#\	5	.
=9	=9	=9	=9	=9
*^	*	*	*	*
!	!	!	!	!	!LO:DY:rj
8AA#X/L	4.AA#\	5	4f#/)	.	p
8C#/	.	3	.	.	.
8F#/J	.	.	8f#/	.	.
8AA#/L	4.AA#\	.	(4ff#\	.	.
8C#/	.	.	.	.	.
8F#/J	.	.	8ee\	.	.
=10	=10	=10	=10	=10	=10
8BB/L	4.BB\	4	4ee\	.	.
8D/	.	.	.	.	.
8F#/J	.	.	8dd\)	.	.
8BB/L	4.BB\	.	4dd\	.	.
8D/	.	.	.	.	.
8F#/J	.	.	8r	.	.
!!LO:LB:g=original
=11	=11	=11	=11	=11	=11
8GG#/L	4.GG#\	5	(<8e/L	1	<
8BB/	.	.	8g#/	2	.
8E/J	.	.	8b/J	3	.
8GG#/L	4.GG#\	.	(4ee\)	5	.
8BB/	.	.	.	.	[
8E/J	.	.	8dd\)	.	.
=12	=12	=12	=12	=12	=12
8AA/L	4AA\	5	(4dd\	.	.
8C#/	.	3	.	.	.
8E/	8ryy	.	8cc#\)	.	>
8A/	4ryy	.	4cc#\	.	.
8E/	.	.	.	.	.
8C#/J	8ryy	.	8e/	.	]
=13	=13	=13	=13	=13	=13
8AA/L	4.AA\	5	4cc#\	4	.
8C#/	.	3	.	.	.
8E/J	.	.	8cc#\	3	<
8BB/L	4.BB\	5	8dd\L	4	.
8E/	.	.	8cc#\	3	.
8G#/J	.	.	8dd\J	1	.
=14	=14	=14	=14	=14	=14
4.C#/	8C#\L	4	4.ee\	2	.
.	8E\	.	.	.	.
.	8A\J	.	.	.	.
4D/	8D\L	5	4ff#\	3	.
.	8F#\	.	.	.	.
8ryy	8B\J	.	16dd\LL	2	[
.	.	.	16b\JJ	1	.
=15	=15	=15	=15	=15	=15
4.E/	8E\L	.	4a/	2	.
.	8A\	.	.	.	.
.	8c#\J	.	(8a/	.	>
.	.	.	(8qcc#/	4	.
4.E/	8E\L	.	8b/L)	.	.
.	8G#\	.	8a#X/	.	.
.	8d\J	.	8b/J	.	.
*v	*v	*	*	*	*
=16	=16	=16	=16	=16
*	*above	*	*	*
8c#L 8A\	2	[4.a/	.	.
8e\	.	.	.	.
8c#\J	.	.	.	]
8A\	.	8a/])	.	.
8r	.	8r	.	.
==	==	==	==	==
*-	*-	*-	*-	*-
!!!system-decoration: {s1,s2}
!!!RDF**kern: > = above
!!!RDF**kern: < = below
!!!RDF**kern: | = vertical stroke
!!!ENC: Marta Lawrence
!!!END: 2021-05-02
!!!ENC: Marcin Jachim
!!!END: 2021-04-17
!!!YEC: Copyright 2022 Narodowy Instytut Fryderyka Chopina (https://polishscores.org)
!!!YEM: License CC-BY-4.0 (https://creativecommons.org/licenses/by/4.0)
